X:229
T:Green Groves of Erin, The
R:reel
H:With variations
H:Also played in Amix, i.e. with ^c instead of =c
D:Bothy Band: 1975
D:Noel Hill & Tony McMahon: \'I gCnoc na Gra\'i
Z:id:hn-reel-229
M:C|
K:Ador
A2 (3cBA eAcA|G2Bd gdBG|A2 (3cBA eAcA|BGEF GABG|
A2 (3cBA eAcA|G2Bd gdBG|A2 (3cBA eAcA|BGED EFGB||
~A3c eAcA|G2Bd gdBG|A2 (3cBA eAcA|BGEF GABG|
ABcd edBA|G2Bd gdBG|A2~A2 eA~A2|BGEF GABd||
eaag ~a3g|eggf g2fg|eaag ~a3g|(3efg fa gedg|
ea~a2 bgag|(3efg fa ~g3e|dega bgag|(3efg fa gedg||
ea~a2 ea~a2|eg~g2 eg~g2|eaag ~a3g|(3efg fa gedg|
ea~a2 (3bag ag|egfa ~g3e|dega bgag|eg (3fga gedB||

